X: 575
T: Yidao wan
%%abc-version 2.0
%%abcx-abcm2ps-target-version 5.9.1 (29 Sep 2008)
%%abc-creator hum2abc beta
%%abcx-conversion-date 2013/10/02 07:52:30
%%abc-edited-by Helmut Schaffrath
%%humdrum-veritas 449493748
%%humdrum-veritas-data 4208347699
%%continueall 1
%%barnumbers 0
L: 1/8
M: 2/4
K: A
A B/ B/ A B [I:setbarnb 1]| 
c B/ B/A2 | 
A c/ c/ B c | 
G FE2 | 
E C E F | 
A FA2 | 
C B,C2 | 
E A F A | 
E B, C E | 
C B,A,2 |]  



